!!!!SEGMENT: pl-gd--ee-2628--005-018_stabile-annibale--il-primo-libro-de-madrigali-a-cinque-voci-qui-maria-quiacque.krn
!!!cenid: 15xx:1063
!!!COM: Stabile, Annibale
!!!COM-rismid: pe30009662
!!!CDT: ~1535-1595/04
!!!CNT: Italian
!!!GTL: Il primo libro de madrigali a cinque voci
!!!OTL: Qui Maria quiacque
!!!OMV: 018
!!!PDT: 1586
!!!AGN:
!!!SMS-siglum: PL-GD
!!!SMS-shelfmark: Ee 2628
!!!SMS-variant:
!!!SMS-altvar:
!!!SMS-shelfwork: 005-018 G
!!!NIFC-rismid: 990060531
!!!URL-scan: https://repozytorium.nifc.pl/islandora/object/pl-gd%3A66139/datastream/PDF/view
!!!ONB-nifc: UWAGA: Canto: s. 78-89, Tenore: s. 233-245, Basso: s. 390-401, Quinto: s. 712-723. Dla głosu Alto proszę skorzystać z https://pbc.gda.pl/dlibra/doccontent?id=79410, str. 25-48. Uwaga: utwory podzielone wg spisu treści dostępnych na końcu ksiąg – proszę sprawdzać sąsiednie tytuły. Głos Quinto proszę umieszczać wg ambitusu (może się różnić w zależności od utworu).
!!!AIN: 1 alto 1 bass 1 soprn 1 tenor   1 vox
!!!key: C
**kern	**text	**kern	**text	**kern	**text	**kern	**text	**kern	**text
*part5	*part5	*part4	*part4	*part3	*part3	*part2	*part2	*part1	*part1
*staff5	*staff5	*staff4	*staff4	*staff3	*staff3	*staff2	*staff2	*staff1	*staff1
*I"BASSO	*	*I"TENORE	*	*I"QVINTO	*	*I"ALTO	*	*I"CANTO	*
*I'B	*	*I'T	*	*I'V	*	*I'A	*	*I'S	*
*ICvox	*	*ICvox	*	*ICvox	*	*ICvox	*	*ICvox	*
*Ibass	*	*Itenor  	*	*Ivox	*	*Ialto	*	*Isoprn	*
*clefF3	*	*clefC3	*	*clefC1	*	*clefC2	*	*clefG2	*
*k[]	*	*k[]	*	*k[]	*	*k[]	*	*k[]	*
*C:	*	*C:	*	*C:	*	*C:	*	*C:	*
*M2/1	*	*M2/1	*	*M2/1	*	*M2/1	*	*M2/1	*
*met(C)	*	*met(C)	*	*met(C)	*	*met(C)	*	*met(C)	*
=1-	=1-	=1-	=1-	=1-	=1-	=1-	=1-	=1-	=1-
!	!	!	!	!	!	!	!	!LO:TX:a:t=Seconda parte.	!
!	!	!LO:TX:a:t=Seconda parte.	!	!	!	!LO:TX:a:t=Seconda parte.	!	!LO:TX:b:t=QVi Maria giocque	!
2c\	QVi	0r	.	1r	.	2r	.	00r	.
4c\	Ma-	.	.	.	.	2g\	QVi	.	.
4c\	-ria	.	.	.	.	.	.	.	.
2B\	gioc-	.	.	2r	.	4g\	Ma-	.	.
.	.	.	.	.	.	4g\	-ria	.	.
2A\	-que vn	.	.	2cc\	QVi	2f\	gio-	.	.
=2-	=2-	=2-	=2-	=2-	=2-	=2-	=2-	=2-	=2-
2.G\	tem-	2g\	QVi	4cc\	Ma-	2e/	-cque vn	.	.
.	.	.	.	4cc\	-ria	.	.	.	.
.	.	4g\	Ma-	2b\	gioc-	2d/	tem-	.	.
4G\	-po el-	4g\	-ria	.	.	.	.	.	.
4A\	-la	2f\	giac-	2a\	-que vn	2.c/	-po el-	.	.
4B\	riſ-	.	.	.	.	.	.	.	.
2c\	-po-	2e\	-que vn	2.g/	tem-	.	.	.	.
.	.	.	.	.	.	2cc\	-la	.	.
=3-	=3-	=3-	=3-	=3-	=3-	=3-	=3-	=3-	=3-
1G	-ſe	2.d\	tem-	.	.	.	.	0r	.
.	.	.	.	4g/	-po el-	8b\	.	.	.
.	.	.	.	.	.	8a\	.	.	.
.	.	.	.	4g/	-la	2b\	.	.	.
.	.	4d\	-po	2dd\	ri-	.	.	.	.
*	*	*	*	*	*	*custos:g	*	*	*
!	!	!	!	!	!	!LO:LB:g=original	!	!	!
1r	.	4e\	ella	.	.	4g\	riſ-	.	.
*	*	*	*	*custos:cc	*	*	*	*	*
!	!	!	!	!LO:LB:g=original	!	!	!	!	!
.	.	4f\	riſ-	4.cc\	-ſpo-	4.a\	-po-	.	.
.	.	2g\	-po-	.	.	.	.	.	.
.	.	.	.	8b\	.	8g\	.	.	.
.	.	.	.	8b\	.	4.g\	.	.	.
.	.	.	.	16a\	.	.	.	.	.
.	.	.	.	16g\	.	.	.	.	.
*custos:D	*	*custos:d	*	*	*	*	*	*	*
!LO:LB:g=original	!	!LO:LB:g=original	!	!	!	!	!	!	!
=4-	=4-	=4-	=4-	=4-	=4-	=4-	=4-	=4-	=4-
4r	.	2d\	-ſe	2a\	.	.	.	2r	.
.	.	.	.	.	.	8f#X\	.	.	.
4D/	Et	.	.	.	.	4f#\	.	.	.
4E/	qui	2r	.	2g/	-ſe	2g\	-ſe	2gg\	Et
4C/	ſo-	.	.	.	.	.	.	.	.
0c	-no-	2g\	Et	4r	.	4r	.	4ee\	qui
.	.	.	.	4cc\	Et	2g\	Et	4cc\	ſo-
.	.	4e\	qui	4cc\	qui	.	.	2gg\	-na-
.	.	4c/	ſo-	4cc\	ſo-	2e/	qui	.	.
=5-	=5-	=5-	=5-	=5-	=5-	=5-	=5-	=5-	=5-
.	.	2g\	-nar-	2cc\	-na-	.	.	1ee	-ron
.	.	.	.	.	.	4c/	ſo-	.	.
.	.	2e\	-on	1g	-ron	2cc\	-na-	.	.
*	*	*	*ij	*	*ij	*	*	*	*ij
0G	-ron	4d\	Et	.	.	2b\	-ron	4r	.
.	.	4B/	qui	.	.	.	.	4dd\	Et
.	.	4G/	ſo-	4r	.	2r	.	4b/	qui
.	.	2d\	-nar-	4dd\	Et	.	.	4g/	ſo-
*	*	*	*	*custos:b	*	*custos:g	*	*custos:dd	*
!	!	!	!	!LO:LB:g=original	!	!LO:LB:g=original	!	!LO:LB:g=original	!
=6-	=6-	=6-	=6-	=6-	=6-	=6-	=6-	=6-	=6-
.	.	.	.	4b\	qui	1r	.	2dd\	-na-
.	.	4B/	-on	4g\	ſo-	.	.	.	.
.	.	2r	.	2dd\	-na-	.	.	2b/	-ron
2r	.	2r	.	2b\	-ron	2r	.	2r	.
*	*	*	*Xij	*	*Xij	*	*	*	*Xij
1c\	l'hu-	1e\	l'hu-	1cc\	l'hu-	1g\	l'hu-	1ee\	l'hu-
=7-	=7-	=7-	=7-	=7-	=7-	=7-	=7-	=7-	=7-
2c\	-mi-	2c/	-mi'-	2cc\	-mi-	2e/	-mi-	2gg\	-mi-
2F/	-li	2A/	-i	2cc\	-li	2a\	-li	2ff\	-li
*	*	*custos:B	*	*	*	*	*	*	*
!	!	!LO:LB:g=original	!	!	!	!	!	!	!
2G\	pa-	2B/	pa-	2b\	pa-	2g\	pa-	2dd\	pa-
=8-	=8-	=8-	=8-	=8-	=8-	=8-	=8-	=8-	=8-
2D/	-ro-	2d\	-ro-	2a\	-ro-	2f#X\	-ro-	2dd\	-ro-
2D/	-le	2d\	-le	2a\	-le	2f#\	-le	2dd\	-le
!x	!	!	!	!	!	!	!	!	!
1r	.	2.c/	Quand'-	4r	.	2.g\	Quand'-	2.ee\	Quand'-
.	.	.	.	2cc\	Quand'	.	.	.	.
.	.	4B/	-in	4dd\	in	4g\	-in	4dd\	-in
*custos:G	*	*	*	*	*	*	*	*	*
!LO:LB:g=original	!	!	!	!	!	!	!	!	!
=9-	=9-	=9-	=9-	=9-	=9-	=9-	=9-	=9-	=9-
0r	.	2c/	lei	2cc\	lei	2g\	lei	2ee\	lei
.	.	4F/	per	4cc\	per	4a\	per	4ff\	per
.	.	4G/	ſal-	4b\	ſal-	4g\	ſal-	4dd\	ſal-
*	*	*	*	*	*	*	*	*custos:dd	*
!	!	!	!	!	!	!	!	!LO:LB:g=original	!
.	.	2d\	-var-	2a\	-var-	2f#X\	-var-	2dd\	-var-
.	.	4B/	-re	4b\	-ne	2g\	-ne	4dd\	-ne
.	.	2c/	Dio	2ee\	Dio	.	.	2cc\	Dio
=10-	=10-	=10-	=10-	=10-	=10-	=10-	=10-	=10-	=10-
1r	.	.	.	.	.	4g\	Dio	.	.
.	.	4G/	ſi	4dd\	ſi	4g\	ſi	4b/	ſi
*	*	*	*	*custos:dd	*	*	*	*	*
!	!	!	!	!LO:LB:g=original	!	!	!	!	!
.	.	2d\	po-	2dd\	po-	2f#X\	po-	2a/	po-
2r	.	2G/	-ſe	1dd	-ſe	1g	-ſe	1b	-ſe
2G\	Et	4r	.	.	.	.	.	.	.
.	.	4g\	Et	.	.	.	.	.	.
=11-	=11-	=11-	=11-	=11-	=11-	=11-	=11-	=11-	=11-
4.A\	hor	4.f\	hor	1r	.	0r	.	1r	.
8B\	nel	8d\	nel	.	.	.	.	.	.
4c\	bel	4e\	bel	.	.	.	.	.	.
4A\	lau-	4f\	lau-	.	.	.	.	.	.
*	*	*custos:d	*	*	*	*	*	*	*
!	!	!LO:LB:g=original	!	!	!	!	!	!	!
2B\	-re-	2d\	-re-	4r	.	.	.	4r	.
.	.	.	.	4g/	Et	.	.	4dd\	Et
2c\	-to	2c/	-to	4.g/	hor	.	.	4.ee\	hor
.	.	.	.	8a\	nel	.	.	8ff\	nel
*	*	*	*	*	*	*custos:d	*	*	*
!	!	!	!	!	!	!LO:LB:g=original	!	!	!
=12-	=12-	=12-	=12-	=12-	=12-	=12-	=12-	=12-	=12-
1r	.	00r	.	4b\	bel	2r	.	4gg\	bel
.	.	.	.	4cc\	lau-	.	.	4ee\	lau-
.	.	.	.	2a\	-re-	4r	.	2ff\	-re-
.	.	.	.	.	.	4d/	Et	.	.
2r	.	.	.	4g/	-to	4.e/	hor	2gg\	-to
.	.	.	.	4g/	Et	.	.	.	.
.	.	.	.	.	.	8fny\	nel	.	.
*	*	*	*	*	*	*	*	*	*ij
2c\	Et	.	.	2.cc\	hor	4g\	bel	2ee\	Et
.	.	.	.	.	.	4e/	lau-	.	.
=13-	=13-	=13-	=13-	=13-	=13-	=13-	=13-	=13-	=13-
4.A\	hor	.	.	.	.	2f\	-re-	4.cc\	hor
.	.	.	.	4a\	nel	.	.	.	.
8B\	nel	.	.	.	.	.	.	8dd\	nel
4c\	bel	.	.	4g/	bel	2e/	-to	4ee\	bel
4A\	l'au-	.	.	4a\	l'au-	.	.	4cc\	lau-
*	*	*	*	*	*	*	*	*custos:dd	*
!	!	!	!	!	!	!	!	!LO:LB:g=original	!
2B\	-re-	.	.	2d/	-re-	2g\	por	2dd\	-re-
4c\	-to	.	.	4e/	-to	4g\	ſi	4g/	-to
*	*	*	*	*	*	*	*	*	*Xij
2F/	por	.	.	2a\	por	4.f\	vuo-	2cc\	por
=14-	=14-	=14-	=14-	=14-	=14-	=14-	=14-	=14-	=14-
.	.	1r	.	.	.	.	.	.	.
.	.	.	.	.	.	8e\	.	.	.
4G\	ſi	.	.	4g/	ſi	8d/	.	4b/	ſi
.	.	.	.	.	.	8c/	.	.	.
*custos:D	*	*	*	*	*	*	*	*	*
!LO:LB:g=original	!	!	!	!	!	!	!	!	!
2D/	vuo-	.	.	2f#X/	vuo-	2d/	.	2a/	vuo-
*	*	*	*	*custos:g	*	*	*	*	*
!	!	!	!	!LO:LB:g=original	!	!	!	!	!
2G\	-le	4r	.	4g\	-le	4d/	-le	4b\	-le
.	.	4G/	Moſ-	4b\	Moſ-	4g\	M	4dd\	Moſ-
4r	.	2c/	-tran-	2cc\	-trand-	2.g\	ſtran-	2ee\	-tran-
4C/	Moſ-	.	.	.	.	.	.	.	.
=15-	=15-	=15-	=15-	=15-	=15-	=15-	=15-	=15-	=15-
2G\	-tran-	2d\	-do	2b\	-do	.	.	2dd\	-do
.	.	.	.	.	.	4g\	-do	.	.
*	*	*	*	*	*	*custos:f	*	*	*
!	!	!	!	!	!	!LO:LB:g=original	!	!	!
2D/	-do	4d\	ch'in	2.a\	ch'in	4f\	ch'in	4ff\	ch'in
.	.	4d\	v l	.	.	4d/	vel	4ff\	vil
4A\	ch'in	2c#X/	ſpo-	.	.	2e/	ſpo-	2ee\	ſpo-
4A\	v l	.	.	4a\	vil	.	.	.	.
2D/	ſpo-	2d\	-glia el	2a\	ſpo-	2f#X\	-glia ei	2dd\	-glia ei
=16-	=16-	=16-	=16-	=16-	=16-	=16-	=16-	=16-	=16-
4G\	-glia et	2.d\	qui	4b\	-glia ei	2.g\	qui	2.dd\	qui
2G\	qui	.	.	2b\	qui	.	.	.	.
4C/	s'aſ-	4cny/	s'aſ-	4cc\	s'aſ-	4g\	s'aſ-	4ee\	s'aſ-
2G\	-co-	2d\	-co-	2b\	-co-	2g\	-co-	2dd\	-co-
2G\	-ſe	2d\	-ſe	2b\	-ſe	4g\	-ſe	4dd\	-ſe
.	.	.	.	.	.	4g\	Che	4dd\	Che
=17-	=17-	=17-	=17-	=17-	=17-	=17-	=17-	=17-	=17-
1r	.	2r	.	2r	.	4.c/	lau-	4.ee\	lau-
.	.	.	.	.	.	8d/	-re-	8dd\	-re-
*	*	*	*	*	*	*	*	*custos:cc	*
!	!	!	!	!	!	!	!	!LO:LB:g=original	!
.	.	4r	.	4r	.	4e/	-ar	4cc\	-ar
.	.	4G/	Che	4dd\	Che	4d/	il	4b/	il
2r	.	4.g\	lau-	4.ee\	lau-	2.c/	ciel	2cc\	ciel
.	.	8f\	-re-	8dd\	-re-	.	.	.	.
*	*	*custos:e	*	*	*	*	*	*	*ij
!	!	!LO:LB:g=original	!	!	!	!	!	!	!
4r	.	4e\	-ar	4cc\	-ar	.	.	4r	.
4G\	Che	4d\	il	4b\	il	4g\	il	4dd\	Che
=18-	=18-	=18-	=18-	=18-	=18-	=18-	=18-	=18-	=18-
4.c\	lau-	2c/	ciel	2cc\	ciel	2g\	ciel	4.ee\	lau-
8B\	-re-	.	.	.	.	.	.	8dd\	-re-
*custos:A	*	*	*	*custos:ee	*ij	*	*	*	*
!LO:LB:g=original	!	!	!	!LO:LB:g=original	!	!	!	!	!
4A\	-ar	2r	.	4r	.	4r	.	4cc\	-ar
4G\	il	.	.	4ee\	Che	4g\	Che	4b\	il
1F	ciel	2r	.	4.ff\	lau-	4.a\	lau-	2cc\	ciel
.	.	.	.	8ee\	-re-	8g\	-re-	.	.
*	*	*	*	*	*	*custos:f	*	*	*Xij
!	!	!	!	!	!	!LO:LB:g=original	!	!	!
.	.	2A/	di	4dd\	-ar	4fny\	-ar	2a/	di
.	.	.	.	4cc\	il	4e/	il	.	.
=19-	=19-	=19-	=19-	=19-	=19-	=19-	=19-	=19-	=19-
2r	.	4.B/	glo-	2b\	ciel.	2d/	ciel	1dd	glo-
.	.	8c/	-ria	.	.	.	.	.	.
*	*	*	*	*	*Xij	*	*	*	*
2D/	di	2d\	ſuo-	2a\	di	2f#X\	di	.	.
2.E/	glo-	1G	-le	2g/	glo-	2g\	glo-	2b/	-ria
.	.	.	.	2g/	-ria	2e/	-ria	2cc\	ſuo-
4F/	-ria	.	.	.	.	.	.	.	.
=20-	=20-	=20-	=20-	=20-	=20-	=20-	=20-	=20-	=20-
1G	ſuo-	1r	.	1g	ſuo-	2d/	ſuo-	2b/	-le
.	.	.	.	.	.	4d/	-le	2dd\	Che
.	.	.	.	.	.	4d/	Che	.	.
2C/	-le	2r	.	2g/	-le	4.c/	lau-	4.ee\	lau-
.	.	.	.	.	.	8d/	-re-	8dd\	-re-
2r	.	4r	.	4r	.	4e/	-ar	4cc\	-ar
.	.	4G/	Che	4dd\	Che	4d/	il	4b/	il
*	*	*	*	*	*	*	*	*custos:cc	*
!	!	!	!	!	!	!	!	!LO:LB:g=original	!
=21-	=21-	=21-	=21-	=21-	=21-	=21-	=21-	=21-	=21-
2r	.	4.g\	lau-	4.ee\	lau-	2.c/	ciel	2cc\	ciel
.	.	8f\	-re-	8dd\	-re-	.	.	.	.
4r	.	4e\	-ar	4cc\	-ar	.	.	4r	.
4G\	Che	4d\	il	4b\	il	4g\	il	4dd\	Che
4.c\	lau-	2c/	ciel	2cc\	ciel	2g\	ciel	4.ee\	lau-
8B\	-re-	.	.	.	.	.	.	8dd\	-re-
4A\	-ar	2r	.	4r	.	4r	.	4cc\	-ar
4G\	il	.	.	4ee\	Che	4g\	Che	4b/	il
=22-	=22-	=22-	=22-	=22-	=22-	=22-	=22-	=22-	=22-
1F	ciel	2r	.	4.ff\	lau-	4.a\	lau-	2cc\	ciel
.	.	.	.	8ee\	-re-	8g\	-re-	.	.
*	*	*	*	*custos:ee	*	*custos:f	*	*	*
!	!	!	!	!LO:LB:g=original	!	!LO:LB:g=original	!	!	!
.	.	2A/	di	4dd\	-ar	4fny\	-ar	2a/	di
.	.	.	.	4cc\	il	4e/	il	.	.
*	*	*custos:B	*	*	*	*	*	*	*
!	!	!LO:LB:g=original	!	!	!	!	!	!	!
2r	.	4.B/	glo-	2b\	ciel	2d/	ciel	1dd	glo-
.	.	8c/	-ria	.	.	.	.	.	.
2D/	di	2d\	ſuo-	2a\	di	2f\	di	.	.
*custos:E	*	*	*	*	*	*	*	*	*
!LO:LB:g=original	!	!	!	!	!	!	!	!	!
=23-	=23-	=23-	=23-	=23-	=23-	=23-	=23-	=23-	=23-
2.E/	glo-	00G	-le.	2g/	glo-	2g\	glo-	2b/	-ria
.	.	.	.	2g/	-ria	2e/	-ria	2.cc\	ſuo-
4F/	-ria	.	.	.	.	.	.	.	.
1G	ſuo-	.	.	1g	ſuo-	1d	ſuo-	.	.
.	.	.	.	.	.	.	.	8b/	.
.	.	.	.	.	.	.	.	8a/	.
.	.	.	.	.	.	.	.	2b/	.
=24-	=24-	=24-	=24-	=24-	=24-	=24-	=24-	=24-	=24-
!LO:N:vis=00	!	!	!	!LO:N:vis=00	!	!LO:N:vis=00	!	!LO:N:vis=00	!
0C	-le.	.	.	0e	-le.	0c	-le.	0cc	-le.
==	==	==	==	==	==	==	==	==	==
*-	*-	*-	*-	*-	*-	*-	*-	*-	*-
!!!system-decoration: [(s1,s2,s3,s4,s5)]
!!!ENC: Berenika Jozajtis
!!!END: 2022-07-08
!!!ENC: Natalia Wrzos
!!!END: 2022-07-29
